svg/sharp.svg

<svg width="284" height="284" viewBox="0 0 284 284" xmlns="http://www.w3.org/2000/svg">
    <path d="M179.075 164.178l5.291-41.768h32.77c5.522 0 10-4.477 10-10s-4.478-10-10-10H186.9l6.987-55.153c.694-5.479-3.186-10.483-8.664-11.178-5.485-.689-10.483 3.186-11.178 8.664l-7.305 57.667h-39.42l6.987-55.153c.694-5.479-3.186-10.483-8.664-11.178-5.482-.689-10.483 3.186-11.178 8.664l-7.305 57.667H67c-5.522 0-10 4.477-10 10s4.478 10 10 10h37.626l-5.291 41.768H67c-5.522 0-10 4.477-10 10s4.478 10 10 10h29.802L90.249 235.9c-.694 5.48 3.186 10.484 8.664 11.178.427.054.851.08 1.27.08 4.963 0 9.267-3.692 9.908-8.744l6.871-54.235h25.354c.808-6.667 1.724-13.333 2.64-20h-25.461l5.291-41.768h39.42l-5.291 41.768h-13.959c-.916 6.667-1.832 13.333-2.64 20h14.066l-6.553 51.721c-.694 5.48 3.186 10.484 8.664 11.178.427.054.851.08 1.27.08 4.963 0 9.268-3.692 9.908-8.744l6.871-54.235h40.594c5.522 0 10-4.477 10-10s-4.478-10-10-10h-38.061z" fill="#1A1918" fill-rule="evenodd"/>
</svg>

<svg width="284" height="284" viewBox="0 0 284 284" fill="none" xmlns="http://www.w3.org/2000/svg">
<path fill-rule="evenodd" clip-rule="evenodd" d="M179.075 164.178L184.366 122.41H217.136C222.658 122.41 227.136 117.933 227.136 112.41C227.136 106.887 222.658 102.41 217.136 102.41H186.9L193.887 47.2573C194.581 41.7783 190.701 36.7743 185.223 36.0793C179.738 35.3903 174.74 39.2653 174.045 44.7433L166.74 102.41H127.32L134.307 47.2573C135.001 41.7783 131.121 36.7743 125.643 36.0793C120.161 35.3903 115.16 39.2653 114.465 44.7433L107.16 102.41H67C61.478 102.41 57 106.887 57 112.41C57 117.933 61.478 122.41 67 122.41H104.626L99.335 164.178H67C61.478 164.178 57 168.655 57 174.178C57 179.701 61.478 184.178 67 184.178H96.802L90.249 235.899C89.555 241.378 93.435 246.383 98.913 247.077C99.34 247.131 99.764 247.157 100.183 247.157C105.146 247.157 109.45 243.465 110.091 238.413L116.962 184.178H142.316C143.124 177.511 144.04 170.845 144.956 164.178H119.495L124.786 122.41H164.206L158.915 164.178H144.956C144.04 170.845 143.124 177.511 142.316 184.178H156.382L149.829 235.899C149.135 241.378 153.015 246.383 158.493 247.077C158.92 247.131 159.344 247.157 159.763 247.157C164.726 247.157 169.031 243.465 169.671 238.413L176.542 184.178H217.136C222.658 184.178 227.136 179.701 227.136 174.178C227.136 168.655 222.658 164.178 217.136 164.178H179.075Z" fill="#1A1919"/>
</svg>
